assets/icons/facebook-2.svg

<svg fill="none" height="15" viewBox="0 0 8 15" width="8" xmlns="http://www.w3.org/2000/svg"><path d="m5.02224 14.8963v-6.79497h2.28081l.34147-2.6481h-2.62228v-1.69073c0-.76667.21293-1.2892 1.31243-1.2892l1.40228-.00065v-2.368418c-.24263-.0321543-1.07498-.104232-2.04335-.104232-2.02177 0-3.40592 1.23402-3.40592 3.50037v1.95293h-2.28670344v2.6481h2.28663344v6.7949z" fill="#3c5a9a"/></svg>

<svg width="8" height="15" viewBox="0 0 8 15" fill="none" xmlns="http://www.w3.org/2000/svg">
<path d="M5.02224 14.8963V8.10133H7.30305L7.64452 5.45323H5.02224V3.7625C5.02224 2.99583 5.23517 2.4733 6.33467 2.4733L7.73695 2.47265V0.104232C7.49432 0.0720777 6.66197 0 5.6936 0C3.67183 0 2.28768 1.23402 2.28768 3.50037V5.4533H0.000976562V8.1014H2.28761V14.8963L5.02224 14.8963Z" fill="#3C5A9A"/>
</svg>
